X:1
T:Afton Water (Flow Gently, Sweet Afton)
M:3/4
L:1/8
K:F
 z4 C2| F2 A2G-F|G-A B2A-G| F2 A2G-F| E4 C2| F2 A2G-F|G-A c2f-d| c2B-AG-A|\
 F4c-d| _e2f-ed-c| c2 d2 f2| f2 A2G-F| F2- E2 C2| F2 A2G-F|G-A c2f-d|\
 c2B-AG-A| F4 z2|
